svgs/1F61F.svg

<svg xmlns="http://www.w3.org/2000/svg" xmlns:xlink="http://www.w3.org/1999/xlink" preserveAspectRatio="none" viewBox="0 0 72 72"><defs><path id="a" fill="#FCC21B" d="M127.1 94.3q0-26.95-8.4-46.95Q103.3 10.7 64.15 10.7T9.6 47.35Q1.15 67.4 1.15 94.3q0 10.35 18.45 17.7 18.45 7.3 44.55 7.3 26.1 0 44.55-7.3 18.4-7.35 18.4-17.7z"/><path id="c" fill="#ED6C30" d="M91.45 76.95q-1.95-1.6-8.55-.75-11 1.4-17 1.4-5.9 0-19.05-2.05-8.3-1.3-10.5.95-.7.7-.95 1.9-.2 1.1.05 2.15 1.75 7.3 10.15 11.75 8.25 4.4 19.8 4.4 11.85 0 19.25-4.65 6.9-4.35 8.15-11.5.35-2.2-1.35-3.6z"/><path id="d" fill="#2F2F2F" d="M27.3 32.9q0-2.3-1.35-3.9-1.3-1.6-3.2-1.6-1.9 0-3.2 1.6-1.35 1.6-1.35 3.9 0 2.25 1.35 3.85t3.2 1.6q1.9 0 3.2-1.6 1.35-1.6 1.35-3.85z"/><path id="e" fill="#2F2F2F" d="M46.35 29Q45 30.6 45 32.9q0 2.25 1.35 3.85t3.2 1.6q1.9 0 3.2-1.6 1.35-1.6 1.35-3.85 0-2.3-1.35-3.9-1.3-1.6-3.2-1.6-1.9 0-3.2 1.6z"/><path id="b" fill="none" stroke="#2F2F2F" stroke-linecap="round" stroke-linejoin="round" stroke-width="3" d="M56.45 25.1L55.3 25q-4-.35-5.5-1.85-1.15-1.4-1.65-2.45M15.9 25.1q4.9-.2 6.65-1.95 1.15-1.4 1.65-2.45"/></defs><use transform="scale(.56248)" xlink:href="#a"/><use xlink:href="#b"/><use transform="matrix(.3755 0 0 -.43608 11.9 86.45)" xlink:href="#c"/><g><use transform="matrix(1.06691 0 0 1.06691 -1.15 -2.55)" xlink:href="#d"/><use transform="matrix(1.06691 0 0 1.06691 -3.55 -2.55)" xlink:href="#e"/></g></svg>

<svg xmlns="http://www.w3.org/2000/svg" version="1.1" xmlns:xlink="http://www.w3.org/1999/xlink" preserveAspectRatio="none" x="0px" y="0px" width="72px" height="72px" viewBox="0 0 72 72">
<defs>
<g id="Layer2_0_FILL">
<path fill="#FCC21B" stroke="none" d="
M 127.1 94.3
Q 127.1 67.35 118.7 47.35 103.3 10.7 64.15 10.7 25 10.7 9.6 47.35 1.15 67.4 1.15 94.3 1.15 104.65 19.6 112 38.05 119.3 64.15 119.3 90.25 119.3 108.7 112 127.1 104.65 127.1 94.3 Z"/>
</g>

<g id="Layer1_1_FILL">
<path fill="#ED6C30" stroke="none" d="
M 91.45 76.95
Q 89.5 75.35 82.9 76.2 71.9 77.6 65.9 77.6 60 77.6 46.85 75.55 38.55 74.25 36.35 76.5 35.65 77.2 35.4 78.4 35.2 79.5 35.45 80.55 37.2 87.85 45.6 92.3 53.85 96.7 65.4 96.7 77.25 96.7 84.65 92.05 91.55 87.7 92.8 80.55 93.15 78.35 91.45 76.95 Z"/>
</g>

<g id="Layer0_0_FILL">
<path fill="#2F2F2F" stroke="none" d="
M 27.3 32.9
Q 27.3 30.6 25.95 29 24.65 27.4 22.75 27.4 20.85 27.4 19.55 29 18.2 30.6 18.2 32.9 18.2 35.15 19.55 36.75 20.9 38.35 22.75 38.35 24.65 38.35 25.95 36.75 27.3 35.15 27.3 32.9 Z"/>
</g>

<g id="Layer0_1_FILL">
<path fill="#2F2F2F" stroke="none" d="
M 46.35 29
Q 45 30.6 45 32.9 45 35.15 46.35 36.75 47.7 38.35 49.55 38.35 51.45 38.35 52.75 36.75 54.1 35.15 54.1 32.9 54.1 30.6 52.75 29 51.45 27.4 49.55 27.4 47.65 27.4 46.35 29 Z"/>
</g>

<path id="Layer1_0_1_STROKES" stroke="#2F2F2F" stroke-width="3" stroke-linejoin="round" stroke-linecap="round" fill="none" d="
M 56.45 25.1
L 55.3 25
Q 51.3 24.65 49.8 23.15 48.65 21.75 48.15 20.7
M 15.9 25.1
Q 20.8 24.9 22.55 23.15 23.7 21.75 24.2 20.7"/>
</defs>

<g id="_____1">
<g transform="matrix( 0.5624847412109375, 0, 0, 0.5624847412109375, 0,0) ">
<use xlink:href="#Layer2_0_FILL"/>
</g>
</g>

<g id="Layer_2">
<g transform="matrix( 1, 0, 0, 1, 0,0) ">
<use xlink:href="#Layer1_0_1_STROKES"/>
</g>

<g transform="matrix( 0.3755035400390625, 0, 0, -0.4360809326171875, 11.9,86.45) ">
<use xlink:href="#Layer1_1_FILL"/>
</g>
</g>

<g id="Layer_3">
<g transform="matrix( 1.0669097900390625, 0, 0, 1.0669097900390625, -1.15,-2.55) ">
<use xlink:href="#Layer0_0_FILL"/>
</g>

<g transform="matrix( 1.0669097900390625, 0, 0, 1.0669097900390625, -3.55,-2.55) ">
<use xlink:href="#Layer0_1_FILL"/>
</g>
</g>
</svg>
